public/assets/images/logo-telegram3.svg

<svg width="46" height="45" viewBox="0 0 46 45" fill="none" xmlns="http://www.w3.org/2000/svg">
<path d="M23.1 0C10.6698 0 0.600006 10.0713 0.600006 22.5C0.600006 34.9287 10.6713 45 23.1 45C35.5302 45 45.6 34.9287 45.6 22.5C45.6 10.0713 35.5287 0 23.1 0ZM34.1511 15.4147L30.4582 32.8166C30.1853 34.0505 29.4508 34.3495 28.426 33.7689L22.801 29.6231L20.0879 32.236C19.7889 32.535 19.5348 32.789 18.9542 32.789L19.3534 27.0639L29.7774 17.6458C30.2318 17.2466 29.6773 17.0202 29.0777 17.4194L16.1947 25.5295L10.6423 23.7963C9.43597 23.416 9.40839 22.59 10.8963 22.0094L32.5892 13.6437C33.5966 13.2808 34.4763 13.889 34.1497 15.4132L34.1511 15.4147Z" fill="#27A8E9"/>
</svg>

<svg xmlns="http://www.w3.org/2000/svg" width="46" height="45" fill="none"><path fill="#27A8E9" d="M23.1 0C10.67 0 .6 10.071.6 22.5S10.671 45 23.1 45c12.43 0 22.5-10.071 22.5-22.5S35.529 0 23.1 0Zm11.051 15.415-3.693 17.402c-.273 1.233-1.007 1.532-2.032.952l-5.625-4.146-2.713 2.613c-.3.299-.553.553-1.134.553l.4-5.725 10.423-9.418c.455-.4-.1-.626-.7-.227l-12.882 8.11-5.553-1.733c-1.206-.38-1.234-1.206.254-1.787l21.693-8.365c1.008-.363 1.887.245 1.56 1.77h.002Z"/></svg>
